context/brand-context/default/img/icons/cart.svg

<svg id="i-cart" viewBox="0 0 18 18" xmlns="http://www.w3.org/2000/svg"><path d="m5 14c1.1045695 0 2 .8954305 2 2s-.8954305 2-2 2-2-.8954305-2-2 .8954305-2 2-2zm10 0c1.1045695 0 2 .8954305 2 2s-.8954305 2-2 2-2-.8954305-2-2 .8954305-2 2-2zm-10 1c-.55228475 0-1 .4477153-1 1s.44771525 1 1 1 1-.4477153 1-1-.44771525-1-1-1zm10 0c-.5522847 0-1 .4477153-1 1s.4477153 1 1 1 1-.4477153 1-1-.4477153-1-1-1zm-12.82032249-15c.47691417 0 .88746157.33678127.98070211.80449199l.23823144 1.19501025 13.36277974.00045554c.5522847.00001882.9999659.44774934.9999659 1.00004222 0 .07084994-.0075361.14150708-.022474.2107727l-1.2908094 5.98534344c-.1007861.46742419-.5432548.80388386-1.0571651.80388386h-10.24805106c-.59173366 0-1.07142857.4477153-1.07142857 1 0 .5128358.41361449.9355072.94647737.9932723l.1249512.0067277h10.35933776c.2749512 0 .4979349.2228539.4979349.4978051 0 .2749417-.2227336.4978951-.4976753.4980063l-10.35959736.0041886c-1.18346732 0-2.14285714-.8954305-2.14285714-2 0-.6625717.34520317-1.24989198.87690425-1.61383592l-1.63768102-8.19004794c-.01312273-.06561364-.01950005-.131011-.0196107-.19547395l-1.71961253-.00064219c-.27614237 0-.5-.22385762-.5-.5 0-.27614237.22385763-.5.5-.5zm14.53193359 2.99950224h-13.11300004l1.20580469 6.02530174c.11024034-.0163252.22327998-.02480398.33844139-.02480398h10.27064786z" fill="currentColor"/></svg>

<svg id="i-cart" viewBox="0 0 18 18" xmlns="http://www.w3.org/2000/svg"><path d="M5 14a2 2 0 1 1 0 4 2 2 0 0 1 0-4zm10 0a2 2 0 1 1 0 4 2 2 0 0 1 0-4zM5 15a1 1 0 1 0 0 2 1 1 0 0 0 0-2zm10 0a1 1 0 1 0 0 2 1 1 0 0 0 0-2zM2.18 0a1 1 0 0 1 .98.804L3.4 2H16.76a1 1 0 0 1 .978 1.21l-1.29 5.986c-.102.468-.544.804-1.058.804H5.143c-.592 0-1.072.448-1.072 1 0 .513.414.936.947.993l.125.007h10.36a.498.498 0 0 1 0 .996L5.142 13C3.959 13 3 12.105 3 11c0-.663.345-1.25.877-1.614l-1.638-8.19a1.005 1.005 0 0 1-.02-.195L.5 1a.5.5 0 1 1 0-1zm14.532 3H3.599l1.205 6.025A2.31 2.31 0 0 1 5.143 9h10.27z" fill="currentColor"/></svg>
